Origami/48x48/apps/vmpk.svg

<svg width="48" height="48" version="1" xmlns="http://www.w3.org/2000/svg">
 <path d="m43 39.111v-30.222c0-1.0466-0.87-1.889-1.95-1.889h-35.1c-1.0803 0-1.95 0.8424-1.95 1.8889v30.222c0 1.047 0.8697 1.889 1.95 1.889h35.1c1.08 0 1.95-0.842 1.95-1.889z" fill="#4f4f4f"/>
 <rect x="6" y="10" width="5" height="30" ry="1" style="opacity:.2"/>
 <rect x="6" y="9" width="5" height="30" ry="1" style="fill:#d8d8d8"/>
 <rect x="11" y="10" width="5" height="30" ry="1" style="opacity:.2"/>
 <rect x="11" y="9" width="5" height="30" ry="1" style="fill:#f0f0f0"/>
 <rect x="16" y="10" width="5" height="30" ry="1" style="opacity:.2"/>
 <rect x="16" y="9" width="5" height="30" ry="1" style="fill:#d8d8d8"/>
 <rect x="21" y="10" width="5" height="30" ry="1" style="opacity:.2"/>
 <rect x="21" y="9" width="5" height="30" ry="1" style="fill:#f0f0f0"/>
 <rect x="26" y="10" width="5" height="30" ry="1" style="opacity:.2"/>
 <rect x="26" y="9" width="5" height="30" ry="1" style="fill:#d8d8d8"/>
 <rect x="31" y="10" width="5" height="30" ry="1" style="opacity:.2"/>
 <rect x="31" y="9" width="5" height="30" ry="1" style="fill:#f0f0f0"/>
 <rect x="36" y="10" width="5" height="30" ry="1" style="opacity:.2"/>
 <rect x="36" y="9" width="5" height="30" ry="1" style="fill:#d8d8d8"/>
 <path d="m9.9902 8c-0.5484 0-0.9902 0.4418-0.9902 0.9902v16.02c0 0.548 0.4418 0.99 0.9902 0.99h2.0198c0.548 0 0.99-0.442 0.99-0.99v-16.02c0-0.5482-0.442-0.99-0.99-0.99h-2.0198zm4.9998 0c-0.548 0-0.99 0.4418-0.99 0.9902v16.02c0 0.548 0.442 0.99 0.99 0.99h2.02c0.548 0 0.99-0.442 0.99-0.99v-16.02c0-0.5482-0.442-0.99-0.99-0.99h-2.02zm10 0c-0.548 0-0.99 0.4418-0.99 0.9902v16.02c0 0.548 0.442 0.99 0.99 0.99h2.02c0.548 0 0.99-0.442 0.99-0.99v-16.02c0-0.5482-0.442-0.99-0.99-0.99h-2.02zm5 0c-0.548 0-0.99 0.4418-0.99 0.9902v16.02c0 0.548 0.442 0.99 0.99 0.99h2.02c0.548 0 0.99-0.442 0.99-0.99v-16.02c0-0.5482-0.442-0.99-0.99-0.99h-2.02zm5 0c-0.548 0-0.99 0.4418-0.99 0.9902v16.02c0 0.548 0.442 0.99 0.99 0.99h2.02c0.548 0 0.99-0.442 0.99-0.99v-16.02c0-0.5482-0.442-0.99-0.99-0.99h-2.02z" fill="#4f4f4f"/>
 <path d="m5.9492 7c-1.0803 0-1.9492 0.8422-1.9492 1.8887v1c0-1.0465 0.8689-1.8887 1.9492-1.8887h35.102c1.08 0 1.949 0.8422 1.949 1.8887v-1c0-1.0465-0.869-1.8887-1.949-1.8887h-35.102z" fill="#fff" opacity=".1"/>
 <path d="m9.9902 8c-0.5484 0-0.9902 0.4418-0.9902 0.9902v1c0-0.5484 0.4418-0.9902 0.9902-0.9902h2.0198c0.548 0 0.99 0.4418 0.99 0.9902v-1c0-0.5484-0.442-0.9902-0.99-0.9902h-2.0198zm4.9998 0c-0.548 0-0.99 0.4418-0.99 0.9902v1c0-0.5484 0.442-0.9902 0.99-0.9902h2.02c0.548 0 0.99 0.4418 0.99 0.9902v-1c0-0.5484-0.442-0.9902-0.99-0.9902h-2.02zm10 0c-0.548 0-0.99 0.4418-0.99 0.9902v1c0-0.5484 0.442-0.9902 0.99-0.9902h2.02c0.548 0 0.99 0.4418 0.99 0.9902v-1c0-0.5484-0.442-0.9902-0.99-0.9902h-2.02zm5 0c-0.548 0-0.99 0.4418-0.99 0.9902v1c0-0.5484 0.442-0.9902 0.99-0.9902h2.02c0.548 0 0.99 0.4418 0.99 0.9902v-1c0-0.5484-0.442-0.9902-0.99-0.9902h-2.02zm5 0c-0.548 0-0.99 0.4418-0.99 0.9902v1c0-0.5484 0.442-0.9902 0.99-0.9902h2.02c0.548 0 0.99 0.4418 0.99 0.9902v-1c0-0.5484-0.442-0.9902-0.99-0.9902h-2.02z" fill="#fff" opacity=".1"/>
 <path d="m4 39.111v1c0 1.047 0.8689 1.889 1.9492 1.889h35.102c1.08 0 1.949-0.842 1.949-1.889v-1c0 1.047-0.869 1.889-1.949 1.889h-35.102c-1.0801 0-1.949-0.842-1.949-1.889z" opacity=".2"/>
 <path d="m9 25.01v1c0 0.548 0.4418 0.99 0.9902 0.99h2.0198c0.548 0 0.99-0.442 0.99-0.99v-1c0 0.548-0.442 0.99-0.99 0.99h-2.0198c-0.5484 0-0.9902-0.442-0.9902-0.99zm5 0v1c0 0.548 0.442 0.99 0.99 0.99h2.02c0.548 0 0.99-0.442 0.99-0.99v-1c0 0.548-0.442 0.99-0.99 0.99h-2.02c-0.548 0-0.99-0.442-0.99-0.99zm10 0v1c0 0.548 0.442 0.99 0.99 0.99h2.02c0.548 0 0.99-0.442 0.99-0.99v-1c0 0.548-0.442 0.99-0.99 0.99h-2.02c-0.548 0-0.99-0.442-0.99-0.99zm5 0v1c0 0.548 0.442 0.99 0.99 0.99h2.02c0.548 0 0.99-0.442 0.99-0.99v-1c0 0.548-0.442 0.99-0.99 0.99h-2.02c-0.548 0-0.99-0.442-0.99-0.99zm5 0v1c0 0.548 0.442 0.99 0.99 0.99h2.02c0.548 0 0.99-0.442 0.99-0.99v-1c0 0.548-0.442 0.99-0.99 0.99h-2.02c-0.548 0-0.99-0.442-0.99-0.99z" style="opacity:.2"/>
</svg>

<svg xmlns="http://www.w3.org/2000/svg" width="48" height="48" version="1">
 <path fill="#4f4f4f" d="m43 39.111v-30.222c0-1.0466-0.87-1.889-1.95-1.889h-35.1c-1.0803 0-1.95 0.8424-1.95 1.8889v30.222c0 1.047 0.8697 1.889 1.95 1.889h35.1c1.08 0 1.95-0.842 1.95-1.889z"/>
 <rect style="opacity:0.2" width="5" height="30" x="6" y="10" ry="1"/>
 <rect style="fill:#d8d8d8" width="5" height="30" x="6" y="9" ry="1"/>
 <rect style="opacity:0.2" width="5" height="30" x="11" y="10" ry="1"/>
 <rect style="fill:#f0f0f0" width="5" height="30" x="11" y="9" ry="1"/>
 <rect style="opacity:0.2" width="5" height="30" x="16" y="10" ry="1"/>
 <rect style="fill:#d8d8d8" width="5" height="30" x="16" y="9" ry="1"/>
 <rect style="opacity:0.2" width="5" height="30" x="21" y="10" ry="1"/>
 <rect style="fill:#f0f0f0" width="5" height="30" x="21" y="9" ry="1"/>
 <rect style="opacity:0.2" width="5" height="30" x="26" y="10" ry="1"/>
 <rect style="fill:#d8d8d8" width="5" height="30" x="26" y="9" ry="1"/>
 <rect style="opacity:0.2" width="5" height="30" x="31" y="10" ry="1"/>
 <rect style="fill:#f0f0f0" width="5" height="30" x="31" y="9" ry="1"/>
 <rect style="opacity:0.2" width="5" height="30" x="36" y="10" ry="1"/>
 <rect style="fill:#d8d8d8" width="5" height="30" x="36" y="9" ry="1"/>
 <path fill="#4f4f4f" d="m9.9902 8c-0.5484 0-0.9902 0.4418-0.9902 0.9902v16.02c0 0.548 0.4418 0.99 0.9902 0.99h2.0198c0.548 0 0.99-0.442 0.99-0.99v-16.02c0-0.5482-0.442-0.99-0.99-0.99h-2.0198zm4.9998 0c-0.548 0-0.99 0.4418-0.99 0.9902v16.02c0 0.548 0.442 0.99 0.99 0.99h2.02c0.548 0 0.99-0.442 0.99-0.99v-16.02c0-0.5482-0.442-0.99-0.99-0.99h-2.02zm10 0c-0.548 0-0.99 0.4418-0.99 0.9902v16.02c0 0.548 0.442 0.99 0.99 0.99h2.02c0.548 0 0.99-0.442 0.99-0.99v-16.02c0-0.5482-0.442-0.99-0.99-0.99h-2.02zm5 0c-0.548 0-0.99 0.4418-0.99 0.9902v16.02c0 0.548 0.442 0.99 0.99 0.99h2.02c0.548 0 0.99-0.442 0.99-0.99v-16.02c0-0.5482-0.442-0.99-0.99-0.99h-2.02zm5 0c-0.548 0-0.99 0.4418-0.99 0.9902v16.02c0 0.548 0.442 0.99 0.99 0.99h2.02c0.548 0 0.99-0.442 0.99-0.99v-16.02c0-0.5482-0.442-0.99-0.99-0.99h-2.02z"/>
 <path fill="#fff" opacity=".1" d="m5.9492 7c-1.0803 0-1.9492 0.8422-1.9492 1.8887v1c0-1.0465 0.8689-1.8887 1.9492-1.8887h35.102c1.08 0 1.949 0.8422 1.949 1.8887v-1c0-1.0465-0.869-1.8887-1.949-1.8887h-35.102z"/>
 <path fill="#fff" opacity=".1" d="m9.9902 8c-0.5484 0-0.9902 0.4418-0.9902 0.9902v1c0-0.5484 0.4418-0.9902 0.9902-0.9902h2.0198c0.548 0 0.99 0.4418 0.99 0.9902v-1c0-0.5484-0.442-0.9902-0.99-0.9902h-2.0198zm4.9998 0c-0.548 0-0.99 0.4418-0.99 0.9902v1c0-0.5484 0.442-0.9902 0.99-0.9902h2.02c0.548 0 0.99 0.4418 0.99 0.9902v-1c0-0.5484-0.442-0.9902-0.99-0.9902h-2.02zm10 0c-0.548 0-0.99 0.4418-0.99 0.9902v1c0-0.5484 0.442-0.9902 0.99-0.9902h2.02c0.548 0 0.99 0.4418 0.99 0.9902v-1c0-0.5484-0.442-0.9902-0.99-0.9902h-2.02zm5 0c-0.548 0-0.99 0.4418-0.99 0.9902v1c0-0.5484 0.442-0.9902 0.99-0.9902h2.02c0.548 0 0.99 0.4418 0.99 0.9902v-1c0-0.5484-0.442-0.9902-0.99-0.9902h-2.02zm5 0c-0.548 0-0.99 0.4418-0.99 0.9902v1c0-0.5484 0.442-0.9902 0.99-0.9902h2.02c0.548 0 0.99 0.4418 0.99 0.9902v-1c0-0.5484-0.442-0.9902-0.99-0.9902h-2.02z"/>
 <path opacity=".2" d="m4 39.111v1c0 1.047 0.8689 1.889 1.9492 1.889h35.102c1.08 0 1.949-0.842 1.949-1.889v-1c0 1.047-0.869 1.889-1.949 1.889h-35.102c-1.0801 0-1.949-0.842-1.949-1.889z"/>
 <path style="opacity:0.2" d="m 9,25.01 v 1 C 9,26.558 9.4418,27 9.9902,27 H 12.01 C 12.558,27 13,26.558 13,26.01 v -1 C 13,25.558 12.558,26 12.01,26 H 9.9902 C 9.4418,26 9,25.558 9,25.01 Z m 5,0 v 1 c 0,0.548 0.442,0.99 0.99,0.99 h 2.02 C 17.558,27 18,26.558 18,26.01 v -1 C 18,25.558 17.558,26 17.01,26 H 14.99 C 14.442,26 14,25.558 14,25.01 Z m 10,0 v 1 c 0,0.548 0.442,0.99 0.99,0.99 h 2.02 C 27.558,27 28,26.558 28,26.01 v -1 C 28,25.558 27.558,26 27.01,26 H 24.99 C 24.442,26 24,25.558 24,25.01 Z m 5,0 v 1 c 0,0.548 0.442,0.99 0.99,0.99 h 2.02 C 32.558,27 33,26.558 33,26.01 v -1 C 33,25.558 32.558,26 32.01,26 H 29.99 C 29.442,26 29,25.558 29,25.01 Z m 5,0 v 1 c 0,0.548 0.442,0.99 0.99,0.99 h 2.02 C 37.558,27 38,26.558 38,26.01 v -1 C 38,25.558 37.558,26 37.01,26 H 34.99 C 34.442,26 34,25.558 34,25.01 Z"/>
</svg>
